projects/flag-game/flags/United Kingdom.svg

<svg viewBox="0 0 1000 500" xmlns="http://www.w3.org/2000/svg"><path d="m0 0h1000v500h-1000z" fill="#00247d"/><path d="m0 500h1000v-500h-1000zm0 0" fill="none" stroke="#00247d" stroke-linecap="square" stroke-miterlimit="3.239307"/><path d="m0 0v55.898438l888.191406 444.101562h111.808594v-55.898438l-888.191406-444.101562zm1000 0v55.898438l-888.191406 444.101562h-111.808594v-55.90625l888.191406-444.09375zm0 0" fill="#fff" fill-rule="evenodd"/><path d="m0 500 333.328125-166.671875h74.542969l-333.339844 166.671875zm0-500 333.328125 166.671875h-74.527344l-258.800781-129.40625zm592.128906 166.671875 333.339844-166.671875h74.53125l-333.328125 166.671875zm407.871094 333.328125-333.328125-166.671875h74.527344l258.800781 129.40625zm0 0" fill="#cf142b" fill-rule="evenodd"/><g stroke-linecap="square" stroke-miterlimit="3.239307"><path d="m416.671875 0v500h166.65625v-500zm0 0" fill="#fff" stroke="#fff"/><path d="m0 166.671875v166.65625h1000v-166.65625zm0 0" fill="#fff" stroke="#fff"/><path d="m0 200v100h1000v-100zm0 0" fill="#cf142b" stroke="#cf142b"/><path d="m450 0v500h100v-500zm0 0" fill="#cf142b" stroke="#cf142b"/></g></svg>

<?xml version="1.0" encoding="UTF-8"?>
<svg xmlns="http://www.w3.org/2000/svg" xmlns:xlink="http://www.w3.org/1999/xlink" viewBox="0 0 1000 500" version="1.1">
<g id="surface1240">
<rect x="0" y="0" width="1000" height="500" style="fill:rgb(0%,14.117432%,49.01886%);fill-opacity:1;stroke:none;"/>
<path style="fill:none;stroke-width:1;stroke-linecap:square;stroke-linejoin:miter;stroke:rgb(0%,14.117432%,49.01886%);stroke-opacity:1;stroke-miterlimit:3.239307;" d="M 0 500 L 1000 500 L 1000 0 L 0 0 Z M 0 500 "/>
<path style=" stroke:none;fill-rule:evenodd;fill:rgb(99.998474%,99.998474%,99.998474%);fill-opacity:1;" d="M 0 0 L 0 55.898438 L 888.191406 500 L 1000 500 L 1000 444.101562 L 111.808594 0 Z M 1000 0 L 1000 55.898438 L 111.808594 500 L 0 500 L 0 444.09375 L 888.191406 0 Z M 1000 0 "/>
<path style=" stroke:none;fill-rule:evenodd;fill:rgb(81.175232%,7.843018%,16.862488%);fill-opacity:1;" d="M 0 500 L 333.328125 333.328125 L 407.871094 333.328125 L 74.53125 500 Z M 0 0 L 333.328125 166.671875 L 258.800781 166.671875 L 0 37.265625 Z M 592.128906 166.671875 L 925.46875 0 L 1000 0 L 666.671875 166.671875 Z M 1000 500 L 666.671875 333.328125 L 741.199219 333.328125 L 1000 462.734375 Z M 1000 500 "/>
<path style="fill-rule:nonzero;fill:rgb(99.998474%,99.998474%,99.998474%);fill-opacity:1;stroke-width:1;stroke-linecap:square;stroke-linejoin:miter;stroke:rgb(99.998474%,99.998474%,99.998474%);stroke-opacity:1;stroke-miterlimit:3.239307;" d="M 416.671875 0 L 416.671875 500 L 583.328125 500 L 583.328125 0 Z M 416.671875 0 "/>
<path style="fill-rule:nonzero;fill:rgb(99.998474%,99.998474%,99.998474%);fill-opacity:1;stroke-width:1;stroke-linecap:square;stroke-linejoin:miter;stroke:rgb(99.998474%,99.998474%,99.998474%);stroke-opacity:1;stroke-miterlimit:3.239307;" d="M 0 166.671875 L 0 333.328125 L 1000 333.328125 L 1000 166.671875 Z M 0 166.671875 "/>
<path style="fill-rule:nonzero;fill:rgb(81.175232%,7.843018%,16.862488%);fill-opacity:1;stroke-width:1;stroke-linecap:square;stroke-linejoin:miter;stroke:rgb(81.175232%,7.843018%,16.862488%);stroke-opacity:1;stroke-miterlimit:3.239307;" d="M 0 200 L 0 300 L 1000 300 L 1000 200 Z M 0 200 "/>
<path style="fill-rule:nonzero;fill:rgb(81.175232%,7.843018%,16.862488%);fill-opacity:1;stroke-width:1;stroke-linecap:square;stroke-linejoin:miter;stroke:rgb(81.175232%,7.843018%,16.862488%);stroke-opacity:1;stroke-miterlimit:3.239307;" d="M 450 0 L 450 500 L 550 500 L 550 0 Z M 450 0 "/>
</g>
</svg>
